X: 37886
T: Soup Dragon, The
R: jig
M: 6/8
K: Bminor
e|:fBB BAB|eff fed|eee e2d|eff ede|
fBB BAB|eff fed|eee f2e|dBA B2e:|
faa afd|eff fed|eee e2 d|eff ede|
[1 faa afd|eff fed|eee f2e|dBA B2e:|
[2 fBB BAB|eff fed|eee f2e|dBA B3||

